X:1
T:Standin In The Need of Prayer
T:Oh Holy Lord
T:Copyright 1881 by The Riverside Press
T:Rodeheaver's Plantation Melodies
Z:Rodeheaver's Plantation Melodies
L:1/8
Q:1/4=100
M:4/4
K:G
V:1 treble nm="Soprano" snm="S."
V:1
 B4 | d2 e2 (BA G2) | (A6 c2) | B2 BE G4 | B4 | d2 e2 (BA G2) | E2 ED B,2 B,2 | D2 E4 || E2 | %9
w: Oh|ho- ly Lord- * *|Oh- *|ho- ly- * Lord.|Oh|ho- ly Lord- * !|Done with the sin and|sor- row.|Oh|
 E2 E2 E2 E2 | G2 G2 G4 | E2 ED B,2 B,2 | D2 E4 E2 | E2 E2 E2 E2 | %14
w: rise up chil- dren|get your crown,|Done with the sin and|sor- row. And|by your Sav- iour's|
"_2. What a glorious morning that will be. Done with the sin and sorrow.\n    Our friends and Jesus we will see. Done with the sin and sorrow.\n\n3. Oh shout you christians you're gaining ground. Done with the sin and sorrow.\n    Ww'll shout old Satans's kingdom down. Done with the sin and sorrow..\n\n4. I soon shall reach that golden shore. Done with the sin and sorrow.\n    And sing the songs we sang before. Done with the sin and sorrow." G2 G2 G4 | %15
w: side sit down.|
 E2 ED B,2 B,2 | D2 E6!D.C.! |] %17
w: Down with the sin and|sor- row.|

